base/src/assets/images/model/mesh/ic_m6s-poe.svg

<?xml version="1.0" encoding="UTF-8"?>
<svg width="70px" height="70px" viewBox="0 0 70 70" version="1.1" xmlns="http://www.w3.org/2000/svg" xmlns:xlink="http://www.w3.org/1999/xlink">
    <title>icon/ic_homepage_m6spoe</title>
    <g id="icon/ic_homepage_m6spoe" stroke="none" stroke-width="1" fill="none" fill-rule="evenodd">
        <path d="M24.4111511,0.314589975 L24.641,0.326 L48.8681766,2.46998647 C50.4890723,2.61366517 51.8239759,3.78401331 52.1895061,5.35490055 L52.2300991,5.55330231 L52.4816436,6.99958998 L65,7 C65.5522847,7 66,7.44771525 66,8 L66,21.6952265 C66,22.1826047 65.6486437,22.5989957 65.16821,22.6809776 L55.1976436,24.38159 L55.3404958,25.5615809 L55.4680793,26.7201332 L55.572348,27.7838974 L55.6532793,28.7530498 L55.6942572,29.3466763 L55.7248463,29.8983836 L55.7450399,30.408224 L55.7548314,30.8762498 L55.7542141,31.302513 L55.75,31.5 L55.7483854,54.6614723 L55.7351376,55.0129457 C55.7318162,55.0745673 55.7279379,55.1377131 55.7235027,55.2023872 L55.6902063,55.6088055 C55.6835426,55.6796097 55.6763217,55.7519507 55.6685433,55.8258326 L55.6151834,56.287649 L55.5484394,56.7866491 L55.4683047,57.3230343 L55.3747725,57.8970063 L55.2093395,58.8288796 L55.0822845,59.4976992 L54.8665359,60.5727883 L54.620568,61.7347131 L54.3443581,62.9841534 L54.1434059,63.866069 L53.7011222,65.7482997 C53.5514573,66.3739761 53.0705687,66.8670882 52.4488452,67.0324078 C52.2185516,67.0936441 51.9830597,67.1538334 51.7423662,67.2129771 L51.0046785,67.3872723 C50.7535791,67.4443259 50.4972752,67.5003349 50.2357637,67.5553007 L49.4356033,67.7170695 C49.2996384,67.7435098 49.1623708,67.7696895 49.0238002,67.7956089 L48.1767369,67.948002 L47.298382,68.0941539 L46.388717,68.2340716 C46.234496,68.2568722 46.0789696,68.2794133 45.9221375,68.301695 L44.9654729,68.4322754 C44.8034163,68.4535206 44.6400532,68.4745069 44.4753832,68.4952342 L43.4716776,68.6164936 L42.4365881,68.7315481 L41.3700965,68.840405 L40.2721843,68.9430716 L39.1428331,69.0395551 L37.9820244,69.129863 L36.7897399,69.2140024 L35.565961,69.2919806 L34.3106694,69.363805 L33.0238467,69.4294827 L31.7054744,69.4890212 L30.3555341,69.5424277 L28.2713933,69.6110559 L26.8424524,69.6491643 L25.3818789,69.6811663 L23.8896546,69.707069 L21.5919323,69.734503 L20.0205,69.7456796 C19.3352492,69.7492457 18.6879818,69.567825 18.1287283,69.245957 L18,69.25 L13.5,69.25 C12.5750061,69.25 11.8189913,68.5327474 11.7544625,67.6262611 L11.7500964,67.481636 L12.0071096,43 L12.0025112,42.5939657 L11.9881505,42.1906811 L11.9631799,41.7772868 L11.9267516,41.3409232 L11.8780177,40.8687311 L11.8161304,40.3478508 L11.740242,39.7654229 L11.4878401,37.9308963 L11.3989519,37.2204974 L11.3344853,36.6150218 L11.3036014,36.2504396 L11.281361,35.9036561 L11.2668799,35.5631378 L11.2577726,35.0388779 L11.2496436,31.9262434 L11.2536641,28.9494715 L11.2706391,26.1517334 L11.307796,23.106416 L11.3628154,20.3768891 L11.3968743,19.1224278 L11.4489442,17.5569029 L11.4929128,16.4588667 L11.557979,15.0901204 L11.6494652,13.5215259 L11.7519756,12.0970515 L11.8417356,11.0511346 C11.8494983,10.9672032 11.8573312,10.8840523 11.8652339,10.8016616 C11.8791569,10.6565057 11.9111681,10.513659 11.9605232,10.3764432 C12.16178,9.81691429 12.4229093,9.22988962 12.7566537,8.57530168 L13.0608008,7.99674567 C13.114555,7.89725048 13.1698653,7.79614281 13.2267691,7.69330586 L13.5876098,7.05459818 C13.6510357,6.94437682 13.7161294,6.83219254 13.7829279,6.71792853 L14.2044743,6.00645315 C14.4670533,5.568444 14.7860986,5.07647402 15.1259091,4.58073621 L15.5413641,3.98725465 C16.172643,3.10395653 16.8249324,2.27350082 17.2900234,1.78861315 C17.6044484,1.46080466 18.0322718,1.26971339 18.4817908,1.25143998 L18.6511984,1.2527588 L22.1641263,1.45016669 C22.5829892,0.871648522 23.2130343,0.477829942 23.9163305,0.354515167 L24.1002027,0.327527524 L24.2520508,0.315535907 L24.4111511,0.314589975 Z M24.881,3.859 L24.8120415,4.03284578 C24.3342953,5.18867663 23.7933006,6.29995589 23.1890763,7.36627582 C22.4821581,8.61382742 21.7244459,9.80045016 20.9159064,10.9258625 L20.7986436,11.08459 L20.8385646,12.1876529 L20.8900349,13.9506651 C20.9052034,14.5458367 20.9183839,15.1485096 20.9295767,15.7586853 L20.9571924,17.6117219 C20.9608013,17.9243132 20.9639134,18.2387805 20.9665287,18.555124 L20.9762594,20.4757011 L20.9740698,22.4413158 C20.9727116,22.7726719 20.9708568,23.1059049 20.9685055,23.4410149 L20.9484395,25.4742019 C20.9441022,25.816821 20.9392685,26.1613176 20.9339383,26.5076919 L20.8960011,28.6084701 L20.8461526,30.7543197 C20.8275514,31.4771157 20.8069655,32.2074251 20.784395,32.9452492 L20.7490511,34.0576215 C20.7293849,34.6545713 20.6759026,35.281474 20.5911805,35.9613335 L20.53019,36.4233316 L20.4603424,36.9003381 L20.3786831,37.4142315 L19.9388721,39.9885394 L19.8354669,40.6615669 L19.7859597,41.0609422 L19.7595543,41.3856408 L19.7513434,41.607323 L19.7507741,66.0688578 C19.7925501,66.1745738 19.892611,66.2452398 20.002507,66.2452398 C20.2622252,66.2439845 20.5206309,66.2424858 20.7777238,66.2407401 L23.0561018,66.2183625 L24.5356034,66.1960449 L26.6956833,66.151488 L28.0962611,66.114407 L29.4652365,66.0714335 L30.8025909,66.0225746 L32.1083056,65.9678377 L33.3823618,65.9072301 L34.6247409,65.8407591 L35.8354241,65.768432 L37.0143927,65.6902559 L38.7233397,65.5620413 L39.8229399,65.469275 L40.89076,65.3706855 L41.9267813,65.2662799 L42.930985,65.1560655 L43.9033524,65.0400497 L44.8438648,64.9182396 C45.1520577,64.8766714 45.4549384,64.8341387 45.7525036,64.7906428 L46.6292499,64.6572663 L47.4740851,64.5181175 L48.2869904,64.3732037 C48.4198128,64.3485714 48.551304,64.3236992 48.6814635,64.2985872 L49.446439,64.1450396 C49.8209341,64.0668285 50.183438,63.9864623 50.541,63.901 L50.8211823,62.6930042 L51.0115297,61.8481912 L51.2716036,60.656947 L51.501119,59.5575375 L51.700051,58.5507103 L51.8683746,57.6372129 L51.9635734,57.0804336 L52.0451501,56.565688 L52.1130972,56.0931974 L52.1674075,55.6631833 L52.2080736,55.2758673 L52.235088,54.9314708 C52.2418168,54.8238498 52.246269,54.723419 52.2484435,54.6302153 L52.25,54.5 L52.250701,31.4504736 C52.2523157,31.3934386 52.2535202,31.3345948 52.2543143,31.2739456 L52.2543143,30.8884108 L52.2441323,30.4597005 L52.2242476,29.9879705 L52.1944908,29.4733768 L52.1548548,28.9160752 L52.1053323,28.3162215 L52.0124959,27.3369966 L51.938226,26.6314444 L51.8540445,25.8838856 L51.7436436,24.97059 L50.8364201,25.1265755 C50.6137494,25.1645723 50.3862506,25.1645723 50.1635799,25.1265755 L35.83179,22.6809776 C35.3513563,22.5989957 35,22.1826047 35,21.6952265 L35,8 C35,7.44771525 35.4477153,7 36,7 L48.9286436,6.99958998 L48.783447,6.16206229 C48.7637385,6.05063648 48.671764,5.96629957 48.5593052,5.95633104 L24.881,3.859 Z M19.313,4.795 L19.2465102,4.87861374 C18.6474179,5.63230794 17.8836792,6.7112871 17.346867,7.57594902 L17.0128357,8.13069103 L16.6541647,8.7438249 L16.3326946,9.31114571 C16.2316448,9.49293619 16.1366551,9.66756975 16.0475855,9.83552496 L15.797997,10.3198342 C15.6432583,10.6299884 15.5116399,10.9153437 15.4020218,11.1797286 L15.3277401,11.363952 L15.2403631,12.3814724 L15.1595997,13.4824802 L15.0856045,14.6746425 L15.0028629,16.3047117 L14.9446598,17.7300042 L14.8937261,19.2713691 L14.8405166,21.3729821 L14.8065032,23.2035423 L14.7749322,25.6909085 L14.7558044,28.4135466 L14.7496638,30.7711157 L14.7546131,34.2293297 L14.7616344,35.3118363 L14.7786197,35.7396509 L14.7986187,36.0366457 L14.843768,36.525169 L14.9096636,37.0957536 L15.0347839,38.0433423 L15.2570205,39.661318 L15.3321585,40.2666435 L15.3927383,40.8178384 L15.4395738,41.3294487 C15.4462796,41.4122265 15.4524466,41.493961 15.4580919,41.5749553 L15.4858371,42.0544625 C15.489463,42.133708 15.4926009,42.2128193 15.4952679,42.2920996 L15.5057542,42.7722321 L15.5070133,43.018364 L15.268,65.75 L16.2496436,65.74959 L16.25,41.6510733 L16.2555958,41.3545207 L16.2637709,41.162127 L16.2849685,40.8652648 L16.3192486,40.5389962 L16.3898969,40.0203491 L16.4948204,39.3585148 L16.9222579,36.8632438 L17.0318547,36.1622889 L17.1180445,35.5285211 C17.1904255,34.9476943 17.2350691,34.4243958 17.2509489,33.9423785 L17.3180467,31.7492498 C17.3282466,31.3874983 17.337955,31.027632 17.347172,30.6696509 L17.3965766,28.5443894 L17.4341887,26.4643833 L17.4600105,24.429641 L17.4740443,22.4401711 L17.4762924,20.4959819 L17.4667571,18.5970819 C17.4487597,16.4081206 17.4067092,14.311642 17.3406217,12.3077066 L17.2780892,10.6127128 C17.2615631,10.2087706 17.3854042,9.81156569 17.6285696,9.48859052 C18.5310938,8.28984746 19.3695797,7.00740712 20.1439697,5.640783 C20.2884814,5.38575236 20.4289553,5.1276727 20.5653824,4.86656081 L19.313,4.795 Z M32.2454079,21.607242 L39.0570316,29.8578285 C39.4086464,30.2837223 40.0389416,30.3439373 40.4648353,29.9923225 C40.5636072,29.9107772 40.6457938,29.811016 40.7069269,29.6984626 L43.4150868,24.7124145 L41.1996692,32.3148174 C41.0672276,32.7693026 41,33.2402932 41,33.7136827 L41,51.9706767 C41,52.6378043 41.2223666,53.2858999 41.6319433,53.8124986 L45.2,58.4 L40.5551314,54.4697266 C40.2241718,54.1896839 39.7504593,54.154798 39.382046,54.3833363 L31.6180639,59.1995791 L37.9293487,53.8991662 C38.6080712,53.329154 39,52.488189 39,51.6018605 L39,34.3708028 C39,33.4734902 38.7585255,32.5927126 38.3009065,31.8208611 L32.2454079,21.607242 Z M42.8264619,10 L39,10 L39,20 L41.0210186,20 L41.0210186,16.4766484 L42.7927782,16.4766484 C43.9559867,16.4766484 44.8665679,16.1939103 45.5245217,15.6284341 C46.1824755,15.0629579 46.5114524,14.290293 46.5114524,13.3104396 C46.5114524,12.6648352 46.3609988,12.0890568 46.0600916,11.5831044 C45.7591844,11.077152 45.3291566,10.6868132 44.7700081,10.4120879 C44.2108596,10.1373626 43.5630109,10 42.8264619,10 Z M50.5,12 C49.8150538,12 49.2063172,12.1559715 48.6737903,12.4679144 C48.1412634,12.7798574 47.7291667,13.2272727 47.4375,13.8101604 C47.1458333,14.3930481 47,15.0677362 47,15.8342246 L47,16.2192513 C47.0037634,16.9679144 47.1524194,17.6301248 47.4459677,18.2058824 C47.7395161,18.7816399 48.1534946,19.2245989 48.6879032,19.5347594 C49.2223118,19.8449198 49.8301075,20 50.5112903,20 C51.2,20 51.8106183,19.8431373 52.3431452,19.5294118 C52.875672,19.2156863 53.2849462,18.7700535 53.5709677,18.1925134 C53.8569892,17.6149733 54,16.942959 54,16.1764706 L54,15.828877 C54,15.0659537 53.8541667,14.3930481 53.5625,13.8101604 C53.2708333,13.2272727 52.8587366,12.7798574 52.3262097,12.4679144 C51.7936828,12.1559715 51.1849462,12 50.5,12 Z M61.6515201,10 L54.9096834,10 L54.9096834,20 L61.6653637,20 L61.6653637,18.3447802 L56.9862245,18.3447802 L56.9862245,15.6662088 L60.9731834,15.6662088 L60.9731834,14.0521978 L56.9862245,14.0521978 L56.9862245,11.668956 L61.6515201,11.668956 L61.6515201,10 Z M50.5,13.5 C50.9810127,13.5 51.3512658,13.6979375 51.6107595,14.0938124 C51.8702532,14.4896873 52,15.0685296 52,15.8303393 L52,16.1846307 C51.9968354,16.9397871 51.8670886,17.5144711 51.6107595,17.9086826 C51.3544304,18.3028942 50.9873418,18.5 50.5094937,18.5 C50.0221519,18.5 49.6487342,18.2954092 49.3892405,17.8862275 C49.1297468,17.4770459 49,16.9015303 49,16.1596806 L49,15.8053892 C49.0031646,15.0502329 49.1344937,14.4772122 49.3939873,14.0863273 C49.653481,13.6954424 50.0221519,13.5 50.5,13.5 Z M42.873619,11.7580214 C43.3721369,11.766934 43.7628672,11.9184492 44.0458098,12.2125668 C44.3287524,12.5066845 44.4702237,12.8921569 44.4702237,13.368984 C44.4702237,13.8324421 44.3298751,14.1889483 44.0491781,14.4385027 C43.7684811,14.688057 43.360909,14.8128342 42.8264619,14.8128342 L41.0210186,14.8128342 L41.0210186,11.7580214 Z" id="形状结合" fill="#333333" fill-rule="nonzero"></path>
    </g>
</svg>

<svg xmlns="http://www.w3.org/2000/svg" width="70" height="70"><path fill="#333" fill-rule="nonzero" d="m24.411.315.23.011L48.868 2.47a3.75 3.75 0 0 1 3.322 2.885l.04.198L52.482 7H65a1 1 0 0 1 1 1v13.695a1 1 0 0 1-.832.986l-9.97 1.7.142 1.18.128 1.16.104 1.063.081.969.041.594.03.551.021.51.01.468v.427l-.005.197-.002 23.161-.013.352-.011.19-.034.406-.021.217-.054.462-.067.499-.08.536-.093.574-.166.932-.127.669-.215 1.075-.246 1.162-.277 1.25-.2.881-.443 1.882a1.75 1.75 0 0 1-1.252 1.284c-.23.062-.466.122-.707.181l-.737.174a48.44 48.44 0 0 1-.77.168l-.8.162c-.135.027-.273.053-.411.079l-.847.152-.879.146-.91.14-.466.068-.957.13c-.162.022-.325.043-.49.063l-1.003.121-1.035.116-1.067.108-1.098.103-1.13.097-1.16.09-1.192.084-1.224.078-1.255.072-1.287.065-1.319.06-1.35.053-2.084.07-1.429.037-1.46.032-1.492.026-2.298.028-1.572.01a3.744 3.744 0 0 1-1.891-.499L18 69.25h-4.5a1.75 1.75 0 0 1-1.746-1.624l-.004-.144L12.007 43l-.004-.406-.015-.403-.025-.414-.036-.436-.049-.472-.062-.521-.076-.583-.252-1.834-.089-.71-.065-.606-.03-.365-.023-.346-.014-.34-.01-.525-.007-3.113.004-2.977.017-2.797.037-3.046.055-2.73.034-1.254.052-1.565.044-1.098.065-1.369.091-1.568.103-1.425.09-1.046.023-.25a1.75 1.75 0 0 1 .096-.425c.2-.56.462-1.146.796-1.8l.304-.58.166-.303.36-.638.196-.337.421-.712c.263-.438.582-.93.922-1.425l.415-.594c.632-.883 1.284-1.713 1.749-2.198a1.75 1.75 0 0 1 1.192-.538l.17.002 3.512.197A2.753 2.753 0 0 1 23.916.355L24.1.328l.152-.012.16-.001Zm.47 3.544-.069.174a29.995 29.995 0 0 1-1.623 3.333 39.303 39.303 0 0 1-2.273 3.56l-.117.159.04 1.103.051 1.763c.015.595.028 1.198.04 1.808l.027 1.853.01.943.01 1.92-.003 1.966-.005 1-.02 2.033-.015 1.034-.038 2.1-.05 2.146c-.018.723-.039 1.453-.062 2.191l-.035 1.113c-.02.597-.073 1.223-.158 1.903l-.06.462-.07.477-.082.514-.44 2.575-.104.673-.049.399-.026.325-.009.221V66.07a.274.274 0 0 0 .252.176l.775-.004 2.278-.023 1.48-.022 2.16-.045 1.4-.037 1.37-.043 1.337-.048 1.305-.055 1.274-.06 1.243-.067 1.21-.073 1.18-.078 1.708-.128 1.1-.093 1.068-.098 1.036-.105 1.004-.11.972-.116.94-.122c.31-.041.612-.084.91-.127l.876-.134.845-.139.813-.145a55.6 55.6 0 0 0 .394-.074l.765-.154a38.95 38.95 0 0 0 1.095-.244l.28-1.208.19-.845.26-1.191.23-1.1.2-1.006.167-.914.096-.557.081-.514.068-.473.054-.43.041-.387.027-.345a7.74 7.74 0 0 0 .013-.3l.002-.131V31.45c.002-.057.004-.115.004-.176v-.386l-.01-.428-.02-.472-.03-.515-.04-.557-.049-.6-.093-.979-.074-.706-.084-.747-.11-.913-.908.156a2 2 0 0 1-.672 0L35.832 22.68a1 1 0 0 1-.832-.986V8a1 1 0 0 1 1-1h12.929l-.146-.838a.25.25 0 0 0-.224-.206L24.881 3.86Zm-5.568.936-.066.084c-.6.753-1.363 1.832-1.9 2.697l-.334.555-.359.613-.321.567c-.101.182-.196.357-.285.525l-.25.484c-.155.31-.286.595-.396.86l-.074.184-.088 1.017-.08 1.101-.074 1.193-.083 1.63-.058 1.425-.051 1.541-.053 2.102-.034 1.83-.032 2.488-.02 2.723-.005 2.357.005 3.458.007 1.083.017.428.02.297.045.488.066.57.125.948.222 1.618.075.606.06.55.048.512.018.246.028.48.01.237.01.48.001.246-.239 22.732h.982V41.65l.006-.296.008-.193.021-.297.034-.326.07-.519.106-.661.427-2.496.11-.7.086-.634c.072-.581.117-1.105.133-1.587l.067-2.193.03-1.08.049-2.125.037-2.08.026-2.034.014-1.99.002-1.944-.01-1.899c-.017-2.189-.06-4.285-.125-6.29l-.063-1.694a1.75 1.75 0 0 1 .35-1.124 35.411 35.411 0 0 0 2.516-3.848c.144-.255.285-.513.421-.774l-1.252-.072Zm12.932 16.812 6.812 8.25a1 1 0 0 0 1.65-.159l2.708-4.986-2.215 7.603a5 5 0 0 0-.2 1.399V51.97a3 3 0 0 0 .632 1.841L45.2 58.4l-4.645-3.93a1 1 0 0 0-1.173-.087L31.618 59.2l6.311-5.3A3 3 0 0 0 39 51.601V34.37a5 5 0 0 0-.7-2.55l-6.055-10.214ZM42.826 10H39v10h2.021v-3.523h1.772c1.163 0 2.074-.283 2.732-.849.657-.565.986-1.338.986-2.318 0-.645-.15-1.22-.45-1.727-.302-.506-.732-.896-1.291-1.17-.56-.276-1.207-.413-1.944-.413Zm7.674 2c-.685 0-1.294.156-1.826.468-.533.312-.945.76-1.236 1.342-.292.583-.438 1.258-.438 2.024v.385c.004.749.152 1.411.446 1.987a3.153 3.153 0 0 0 1.242 1.329c.534.31 1.142.465 1.823.465.689 0 1.3-.157 1.832-.47.533-.314.942-.76 1.228-1.337.286-.578.429-1.25.429-2.017v-.347c0-.763-.146-1.436-.438-2.019a3.144 3.144 0 0 0-1.236-1.342C51.794 12.156 51.185 12 50.5 12Zm11.152-2H54.91v10h6.755v-1.655h-4.679v-2.679h3.987v-1.614h-3.987V11.67h4.666V10ZM50.5 13.5c.481 0 .851.198 1.11.594.26.396.39.975.39 1.736v.355c-.003.755-.133 1.33-.39 1.724-.256.394-.623.591-1.1.591-.488 0-.861-.205-1.12-.614-.26-.409-.39-.984-.39-1.726v-.355c.003-.755.134-1.328.394-1.719.26-.39.628-.586 1.106-.586Zm-7.626-1.742c.498.009.889.16 1.172.455.283.294.424.68.424 1.156 0 .463-.14.82-.42 1.07-.282.25-.69.374-1.224.374h-1.805v-3.055Z"/></svg>
